packages/core/src/svgs/cly.svg

<svg width="24" height="24" viewBox="0 0 24 24" fill="none" xmlns="http://www.w3.org/2000/svg">
<g clip-path="url(#clip0_31_8424)">
<path d="M0 0H24V24H0V0Z" fill="url(#paint0_linear_31_8424)"/>
<path d="M12 4.71406C11.0309 4.69052 10.0669 4.86107 9.16469 5.21566C8.2625 5.57025 7.44035 6.10173 6.74663 6.77881C6.0529 7.45589 5.50162 8.26489 5.12523 9.15821C4.74883 10.0515 4.55493 11.0111 4.55493 11.9805C4.55493 12.9499 4.74883 13.9094 5.12523 14.8028C5.50162 15.6961 6.0529 16.5051 6.74663 17.1822C7.44035 17.8592 8.2625 18.3907 9.16469 18.7453C10.0669 19.0999 11.0309 19.2705 12 19.2469C12.9691 19.2705 13.9331 19.0999 14.8353 18.7453C15.7375 18.3907 16.5596 17.8592 17.2533 17.1822C17.9471 16.5051 18.4984 15.6961 18.8747 14.8028C19.2511 13.9094 19.445 12.9499 19.445 11.9805C19.445 11.0111 19.2511 10.0515 18.8747 9.15821C18.4984 8.26489 17.9471 7.45589 17.2533 6.77881C16.5596 6.10173 15.7375 5.57025 14.8353 5.21566C13.9331 4.86107 12.9691 4.69052 12 4.71406ZM12 15.8569C9.85713 15.8569 8.14284 14.1769 8.14284 11.9998C8.14284 9.85691 9.81427 8.14263 12 8.14263C14.1428 8.14263 15.8571 9.82263 15.8571 11.9998C15.8571 14.1426 14.1428 15.8569 12 15.8569Z" fill="url(#paint1_linear_31_8424)"/>
<path d="M19.2857 11.983V11.8716C19.2588 10.2078 18.6577 8.60449 17.5843 7.33301C16.4787 8.62927 15.8749 10.2793 15.8829 11.983C15.876 13.6853 16.4796 15.3336 17.5843 16.6287C18.651 15.355 19.2512 13.7555 19.2857 12.0944V11.983Z" fill="url(#paint2_linear_31_8424)"/>
<path d="M6.41578 7.33301C5.34239 8.60449 4.74134 10.2078 4.71436 11.8716V12.0944C4.74232 13.7567 5.34332 15.3584 6.41578 16.6287C7.52046 15.3336 8.12414 13.6853 8.11721 11.983C8.11721 10.213 7.45293 8.58872 6.41578 7.33301Z" fill="url(#paint3_linear_31_8424)"/>
<path d="M16.6585 6.4115C15.3823 5.34088 13.7768 4.74166 12.1113 4.71436H11.8885C10.2229 4.74166 8.61744 5.34088 7.34131 6.4115C8.64217 7.51452 10.2943 8.11642 11.9999 8.10864C13.6992 8.08203 15.3402 7.48422 16.6585 6.4115Z" fill="url(#paint4_linear_31_8424)"/>
<path d="M7.34131 17.5887C8.65091 18.6766 10.2974 19.2765 11.9999 19.2859C13.7742 19.2859 15.4027 18.6602 16.6585 17.5887C15.3488 16.5009 13.7024 15.901 11.9999 15.8916C10.2256 15.8916 8.59702 16.5173 7.34131 17.5887Z" fill="url(#paint5_linear_31_8424)"/>
<path d="M11.9999 13.7142C12.4546 13.7142 12.8906 13.5336 13.2121 13.2121C13.5336 12.8906 13.7142 12.4546 13.7142 11.9999C13.7142 11.5453 13.5336 11.1092 13.2121 10.7877C12.8906 10.4663 12.4546 10.2856 11.9999 10.2856C11.5453 10.2856 11.1092 10.4663 10.7877 10.7877C10.4663 11.1092 10.2856 11.5453 10.2856 11.9999C10.2856 12.4546 10.4663 12.8906 10.7877 13.2121C11.1092 13.5336 11.5453 13.7142 11.9999 13.7142Z" fill="url(#paint6_linear_31_8424)"/>
</g>
<defs>
<linearGradient id="paint0_linear_31_8424" x1="4.46571" y1="4.16143" x2="29.2071" y2="32.58" gradientUnits="userSpaceOnUse">
<stop stop-color="#1A1E21"/>
<stop offset="1" stop-color="#06060A"/>
</linearGradient>
<linearGradient id="paint1_linear_31_8424" x1="8.69142" y1="0.184057" x2="15.1028" y2="23.1641" gradientUnits="userSpaceOnUse">
<stop offset="0.14" stop-color="#FF78F1"/>
<stop offset="0.3" stop-color="#C199F2"/>
<stop offset="0.49" stop-color="#7DBDF4"/>
<stop offset="0.66" stop-color="#47D9F5"/>
<stop offset="0.81" stop-color="#20EEF6"/>
</linearGradient>
<linearGradient id="paint2_linear_31_8424" x1="17.5972" y1="7.30301" x2="17.5972" y2="16.6459" gradientUnits="userSpaceOnUse">
<stop stop-color="#8172E8"/>
<stop offset="1" stop-color="#00C4EF"/>
</linearGradient>
<linearGradient id="paint3_linear_31_8424" x1="6.40721" y1="7.35015" x2="6.40721" y2="16.243" gradientUnits="userSpaceOnUse">
<stop stop-color="#8172E8"/>
<stop offset="1" stop-color="#00C4EF"/>
</linearGradient>
<linearGradient id="paint4_linear_31_8424" x1="16.4785" y1="6.40293" x2="9.30417" y2="6.40293" gradientUnits="userSpaceOnUse">
<stop stop-color="#008DEB"/>
<stop offset="1" stop-color="#956DE7"/>
</linearGradient>
<linearGradient id="paint5_linear_31_8424" x1="7.34131" y1="17.5716" x2="16.6585" y2="17.5716" gradientUnits="userSpaceOnUse">
<stop stop-color="#009BEC"/>
<stop offset="1" stop-color="#00CAEF"/>
</linearGradient>
<linearGradient id="paint6_linear_31_8424" x1="11.9999" y1="15.8056" x2="11.9999" y2="10.9242" gradientUnits="userSpaceOnUse">
<stop stop-color="#FF78F1"/>
<stop offset="1" stop-color="#00FFF7"/>
</linearGradient>
<clipPath id="clip0_31_8424">
<rect width="24" height="24" fill="white"/>
</clipPath>
</defs>
</svg>

<svg xmlns="http://www.w3.org/2000/svg" width="24" height="24" fill="none" viewBox="0 0 24 24"><g clip-path="url(#a)"><path fill="url(#b)" d="M0 0h24v24H0z"/><path fill="url(#c)" d="M12 4.714a7.269 7.269 0 1 0 0 14.533 7.267 7.267 0 0 0 2.835-14.031A7.3 7.3 0 0 0 12 4.714m0 11.143c-2.143 0-3.857-1.68-3.857-3.857 0-2.143 1.671-3.857 3.857-3.857 2.143 0 3.857 1.68 3.857 3.857A3.84 3.84 0 0 1 12 15.857"/><path fill="url(#d)" d="M19.286 11.983v-.111a7.22 7.22 0 0 0-1.702-4.539 7.1 7.1 0 0 0-1.701 4.65 7.1 7.1 0 0 0 1.701 4.646 7.3 7.3 0 0 0 1.702-4.535z"/><path fill="url(#e)" d="M6.416 7.333a7.22 7.22 0 0 0-1.702 4.539v.222a7.22 7.22 0 0 0 1.702 4.535 7.1 7.1 0 0 0 1.701-4.646c0-1.77-.664-3.394-1.701-4.65"/><path fill="url(#f)" d="M16.659 6.412a7.26 7.26 0 0 0-4.548-1.698h-.223a7.26 7.26 0 0 0-4.547 1.697A7.15 7.15 0 0 0 12 8.11a7.57 7.57 0 0 0 4.659-1.697"/><path fill="url(#g)" d="M7.341 17.589A7.35 7.35 0 0 0 12 19.286a7.14 7.14 0 0 0 4.659-1.697 7.36 7.36 0 0 0-4.66-1.697 7.14 7.14 0 0 0-4.658 1.697"/><path fill="url(#h)" d="M12 13.714a1.714 1.714 0 1 0 0-3.428 1.714 1.714 0 0 0 0 3.428"/></g><defs><linearGradient id="b" x1="4.466" x2="29.207" y1="4.161" y2="32.58" gradientUnits="userSpaceOnUse"><stop stop-color="#1A1E21"/><stop offset="1" stop-color="#06060A"/></linearGradient><linearGradient id="c" x1="8.691" x2="15.103" y1=".184" y2="23.164" gradientUnits="userSpaceOnUse"><stop offset=".14" stop-color="#FF78F1"/><stop offset=".3" stop-color="#C199F2"/><stop offset=".49" stop-color="#7DBDF4"/><stop offset=".66" stop-color="#47D9F5"/><stop offset=".81" stop-color="#20EEF6"/></linearGradient><linearGradient id="d" x1="17.597" x2="17.597" y1="7.303" y2="16.646" gradientUnits="userSpaceOnUse"><stop stop-color="#8172E8"/><stop offset="1" stop-color="#00C4EF"/></linearGradient><linearGradient id="e" x1="6.407" x2="6.407" y1="7.35" y2="16.243" gradientUnits="userSpaceOnUse"><stop stop-color="#8172E8"/><stop offset="1" stop-color="#00C4EF"/></linearGradient><linearGradient id="f" x1="16.479" x2="9.304" y1="6.403" y2="6.403" gradientUnits="userSpaceOnUse"><stop stop-color="#008DEB"/><stop offset="1" stop-color="#956DE7"/></linearGradient><linearGradient id="g" x1="7.341" x2="16.659" y1="17.572" y2="17.572" gradientUnits="userSpaceOnUse"><stop stop-color="#009BEC"/><stop offset="1" stop-color="#00CAEF"/></linearGradient><linearGradient id="h" x1="12" x2="12" y1="15.806" y2="10.924" gradientUnits="userSpaceOnUse"><stop stop-color="#FF78F1"/><stop offset="1" stop-color="#00FFF7"/></linearGradient><clipPath id="a"><path fill="#fff" d="M0 0h24v24H0z"/></clipPath></defs></svg>
